Newaita-dark/.DP/22/battery-low-charging.svg

<?xml version="1.0" encoding="UTF-8"?>
<svg xmlns="http://www.w3.org/2000/svg" xmlns:xlink="http://www.w3.org/1999/xlink" width="22pt" height="22pt" viewBox="0 0 22 22" version="1.1">
<g id="surface1">
<path style=" stroke:none;fill-rule:nonzero;fill:rgb(74.117649%,74.117649%,74.117649%);fill-opacity:1;" d="M 2.730469 4.265625 C 1.972656 4.265625 1.363281 4.875 1.363281 5.628906 L 1.363281 16.542969 C 1.363281 17.300781 1.972656 17.910156 2.730469 17.910156 L 11.253906 17.910156 C 11.085938 17.480469 10.976562 17.023438 10.933594 16.542969 L 3.636719 16.542969 C 3.132812 16.542969 2.730469 16.140625 2.730469 15.636719 L 2.730469 6.539062 C 2.730469 6.035156 3.132812 5.628906 3.636719 5.628906 L 17.28125 5.628906 C 17.785156 5.628906 18.191406 6.035156 18.191406 6.539062 L 18.191406 11.628906 C 19.230469 12.15625 20.058594 13.039062 20.519531 14.117188 C 20.761719 13.953125 20.921875 13.675781 20.921875 13.359375 L 20.921875 8.8125 C 20.921875 8.308594 20.515625 7.902344 20.011719 7.902344 L 19.554688 7.902344 L 19.554688 5.628906 C 19.554688 4.875 18.949219 4.265625 18.191406 4.265625 Z M 2.730469 4.265625 "/>
<path style=" stroke:none;fill-rule:nonzero;fill:rgb(74.117649%,74.117649%,74.117649%);fill-opacity:1;" d="M 4.546875 6.992188 L 5.457031 6.992188 C 5.707031 6.992188 5.914062 7.175781 5.914062 7.402344 L 5.914062 14.769531 C 5.914062 14.996094 5.707031 15.179688 5.457031 15.179688 L 4.546875 15.179688 C 4.296875 15.179688 4.09375 14.996094 4.09375 14.769531 L 4.09375 7.402344 C 4.09375 7.175781 4.296875 6.992188 4.546875 6.992188 Z M 4.546875 6.992188 "/>
<path style=" stroke:none;fill-rule:nonzero;fill:rgb(74.117649%,74.117649%,74.117649%);fill-opacity:0.392157;" d="M 8.1875 6.992188 L 9.097656 6.992188 C 9.347656 6.992188 9.550781 7.175781 9.550781 7.402344 L 9.550781 14.769531 C 9.550781 14.996094 9.347656 15.179688 9.097656 15.179688 L 8.1875 15.179688 C 7.933594 15.179688 7.730469 14.996094 7.730469 14.769531 L 7.730469 7.402344 C 7.730469 7.175781 7.933594 6.992188 8.1875 6.992188 Z M 8.1875 6.992188 "/>
<path style=" stroke:none;fill-rule:nonzero;fill:rgb(74.117649%,74.117649%,74.117649%);fill-opacity:0.392157;" d="M 11.824219 6.992188 C 11.574219 6.992188 11.371094 7.175781 11.371094 7.402344 L 11.371094 13.996094 C 11.765625 13.132812 12.398438 12.402344 13.1875 11.890625 L 13.1875 7.402344 C 13.1875 7.175781 12.984375 6.992188 12.734375 6.992188 Z M 11.824219 6.992188 "/>
<path style=" stroke:none;fill-rule:nonzero;fill:rgb(74.117649%,74.117649%,74.117649%);fill-opacity:0.392157;" d="M 15.464844 6.992188 C 15.210938 6.992188 15.007812 7.175781 15.007812 7.402344 L 15.007812 11.167969 C 15.304688 11.113281 15.605469 11.085938 15.917969 11.085938 C 16.230469 11.085938 16.53125 11.113281 16.828125 11.167969 L 16.828125 7.402344 C 16.828125 7.175781 16.625 6.992188 16.371094 6.992188 Z M 15.464844 6.992188 "/>
<path style=" stroke:none;fill-rule:evenodd;fill:rgb(100%,43.921569%,26.274511%);fill-opacity:1;" d="M 17.964844 12.453125 L 12.960938 16.542969 L 15.234375 16.542969 L 13.871094 19.726562 L 18.875 15.636719 L 16.601562 15.636719 Z M 17.964844 12.453125 "/>
</g>
</svg>

<svg xmlns="http://www.w3.org/2000/svg" width="22pt" height="22pt" viewBox="0 0 22 22"><path d="M2.73 4.266c-.757 0-1.367.609-1.367 1.363v10.914c0 .758.61 1.367 1.367 1.367h8.524a4.956 4.956 0 0 1-.32-1.367H3.637a.902.902 0 0 1-.907-.906V6.539c0-.504.403-.91.907-.91H17.28c.504 0 .91.406.91.91v5.09a4.997 4.997 0 0 1 2.329 2.488.913.913 0 0 0 .402-.758V8.813a.909.909 0 0 0-.91-.91h-.457V5.628a1.36 1.36 0 0 0-1.364-1.363zm0 0" fill="#bdbdbd"/><path d="M4.547 6.992h.91c.25 0 .457.184.457.41v7.368c0 .226-.207.41-.457.41h-.91c-.25 0-.453-.184-.453-.41V7.402c0-.226.203-.41.453-.41zm0 0" fill="#bdbdbd"/><path d="M8.188 6.992h.91c.25 0 .453.184.453.41v7.368c0 .226-.203.41-.453.41h-.91c-.254 0-.458-.184-.458-.41V7.402c0-.226.204-.41.457-.41zm0 0M11.824 6.992c-.25 0-.453.184-.453.41v6.594a4.977 4.977 0 0 1 1.816-2.105V7.402c0-.226-.203-.41-.453-.41zm0 0M15.465 6.992c-.254 0-.457.184-.457.41v3.766c.297-.055.597-.082.91-.082.312 0 .613.027.91.082V7.402c0-.226-.203-.41-.457-.41zm0 0" fill="#bdbdbd" fill-opacity=".392"/><path d="M17.965 12.453l-5.004 4.09h2.273l-1.363 3.184 5.004-4.09h-2.273zm0 0" fill-rule="evenodd" fill="#ff7043"/></svg>
